neru-light-classic/32x32/apps/instagram.svg

<?xml version="1.0" encoding="UTF-8" standalone="no"?>
<svg
   xmlns:dc="http://purl.org/dc/elements/1.1/"
   xmlns:cc="http://creativecommons.org/ns#"
   xmlns:rdf="http://www.w3.org/1999/02/22-rdf-syntax-ns#"
   xmlns:svg="http://www.w3.org/2000/svg"
   xmlns="http://www.w3.org/2000/svg"
   xmlns:sodipodi="http://sodipodi.sourceforge.net/DTD/sodipodi-0.dtd"
   xmlns:inkscape="http://www.inkscape.org/namespaces/inkscape"
   height="32"
   width="32"
   version="1"
   id="svg26"
   sodipodi:docname="ramme.svg"
   inkscape:version="0.92.1 r">
  <metadata
     id="metadata32">
    <rdf:RDF>
      <cc:Work
         rdf:about="">
        <dc:format>image/svg+xml</dc:format>
        <dc:type
           rdf:resource="http://purl.org/dc/dcmitype/StillImage" />
      </cc:Work>
    </rdf:RDF>
  </metadata>
  <defs
     id="defs30" />
  <sodipodi:namedview
     pagecolor="#ffffff"
     bordercolor="#666666"
     borderopacity="1"
     objecttolerance="10"
     gridtolerance="10"
     guidetolerance="10"
     inkscape:pageopacity="0"
     inkscape:pageshadow="2"
     inkscape:window-width="640"
     inkscape:window-height="480"
     id="namedview28"
     showgrid="false"
     inkscape:zoom="8.9375"
     inkscape:cx="-10.860486"
     inkscape:cy="18.391756"
     inkscape:current-layer="svg26" />
  <rect
     style="opacity:1;fill:#765a4d;fill-opacity:1;fill-rule:evenodd;stroke:none;stroke-width:1.03534329;stroke-linecap:round;stroke-linejoin:bevel;stroke-miterlimit:4;stroke-dasharray:none;stroke-dashoffset:0;stroke-opacity:1"
     id="rect4497-6"
     width="28.203388"
     height="28.203388"
     x="1.8983059"
     y="1.8983059"
     ry="5.575182" />
  <g
     id="g4569">
    <path
       id="path4553"
       d="M 16 1.8984375 L 16 5.8574219 L 12.957031 5.8574219 L 9.9140625 5.8574219 L 6.8710938 5.8574219 L 3.828125 5.8574219 L 3.828125 3.3242188 C 2.6653806 4.3445296 1.8984375 5.7970563 1.8984375 7.4726562 L 1.8984375 24.527344 C 1.8984375 27.615995 4.3840055 30.101564 7.4726562 30.101562 L 24.527344 30.101562 C 27.615995 30.101563 30.101564 27.615995 30.101562 24.527344 L 30.101562 7.4726562 C 30.101563 4.3840055 27.615995 1.8984375 24.527344 1.8984375 L 16 1.8984375 z "
       style="opacity:1;fill:#765a4d;fill-opacity:1;fill-rule:evenodd;stroke:none;stroke-width:1.03534329;stroke-linecap:round;stroke-linejoin:bevel;stroke-miterlimit:4;stroke-dasharray:none;stroke-dashoffset:0;stroke-opacity:1" />
    <path
       id="path4550"
       d="M 12.957031 1.8984375 L 12.957031 5.8574219 L 16 5.8574219 L 16 1.8984375 L 12.957031 1.8984375 z "
       style="opacity:1;fill:#498fb4;fill-opacity:1;fill-rule:evenodd;stroke:none;stroke-width:1.03534329;stroke-linecap:round;stroke-linejoin:bevel;stroke-miterlimit:4;stroke-dasharray:none;stroke-dashoffset:0;stroke-opacity:1" />
    <path
       id="path4547"
       d="M 9.9140625 1.8984375 L 9.9140625 5.8574219 L 12.957031 5.8574219 L 12.957031 1.8984375 L 9.9140625 1.8984375 z "
       style="opacity:1;fill:#50b449;fill-opacity:1;fill-rule:evenodd;stroke:none;stroke-width:1.03534329;stroke-linecap:round;stroke-linejoin:bevel;stroke-miterlimit:4;stroke-dasharray:none;stroke-dashoffset:0;stroke-opacity:1" />
    <path
       id="path4544"
       d="M 6.8710938 2.0195312 L 6.8710938 5.8574219 L 9.9140625 5.8574219 L 9.9140625 1.8984375 L 7.4726562 1.8984375 C 7.2589743 1.8984375 7.0783879 1.9963528 6.8710938 2.0195312 z "
       style="opacity:1;fill:#f1a24a;fill-opacity:1;fill-rule:evenodd;stroke:none;stroke-width:1.03534329;stroke-linecap:round;stroke-linejoin:bevel;stroke-miterlimit:4;stroke-dasharray:none;stroke-dashoffset:0;stroke-opacity:1" />
    <path
       id="rect4497-3"
       d="M 3.828125 3.3242188 L 3.828125 5.8574219 L 6.8710938 5.8574219 L 6.8710938 2.0195312 C 5.7075788 2.149629 4.6603997 2.5938958 3.828125 3.3242188 z "
       style="opacity:1;fill:#e15a5a;fill-opacity:1;fill-rule:evenodd;stroke:none;stroke-width:1.03534329;stroke-linecap:round;stroke-linejoin:bevel;stroke-miterlimit:4;stroke-dasharray:none;stroke-dashoffset:0;stroke-opacity:1" />
    <path
       style="fill:#383838;stroke-width:1"
       inkscape:connector-curvature="0"
       id="path12"
       d="M 26.143281,3.8280659 A 2.0286559,2.0286559 0 0 1 28.171936,5.8567218 2.0286559,2.0286559 0 0 1 26.143281,7.8853777 2.0286559,2.0286559 0 0 1 24.114625,5.8567218 2.0286559,2.0286559 0 0 1 26.143281,3.8280659 Z" />
    <path
       style="fill:#9b9b9b;stroke-width:1"
       inkscape:connector-curvature="0"
       id="path16"
       d="M 16.000002,7.8853777 A 8.1146235,8.1146235 0 0 1 24.114625,16.000002 8.1146235,8.1146235 0 0 1 16.000002,24.114625 8.1146235,8.1146235 0 0 1 7.8853777,16.000002 8.1146235,8.1146235 0 0 1 16.000002,7.8853777 Z" />
    <path
       style="fill:#c4c4c4;stroke-width:1"
       inkscape:connector-curvature="0"
       id="path20"
       d="m 16.000002,10.928361 a 5.0716397,5.0716397 0 0 0 -5.071641,5.071641 5.0716397,5.0716397 0 0 0 5.071641,5.071639 5.0716397,5.0716397 0 0 0 5.071639,-5.071639 5.0716397,5.0716397 0 0 0 -5.071639,-5.071641 z" />
  </g>
</svg>

<svg xmlns="http://www.w3.org/2000/svg" height="32" width="32" version="1"><rect width="28.203" height="28.203" x="1.898" y="1.898" ry="5.575" fill="#765a4d" fill-rule="evenodd"/><path d="M16 1.898v3.96H3.828V3.323c-1.163 1.02-1.93 2.473-1.93 4.149v17.054a5.561 5.561 0 0 0 5.575 5.575h17.054a5.561 5.561 0 0 0 5.575-5.575V7.473a5.561 5.561 0 0 0-5.575-5.575H16z" fill="#765a4d" fill-rule="evenodd"/><path d="M12.957 1.898v3.96H16v-3.96h-3.043z" fill="#498fb4" fill-rule="evenodd"/><path d="M9.914 1.898v3.96h3.043v-3.96H9.914z" fill="#50b449" fill-rule="evenodd"/><path d="M6.871 2.02v3.837h3.043V1.898H7.473c-.214 0-.395.098-.602.122z" fill="#f1a24a" fill-rule="evenodd"/><path d="M3.828 3.324v2.533h3.043V2.02c-1.163.13-2.21.574-3.043 1.304z" fill="#e15a5a" fill-rule="evenodd"/><path d="M26.143 3.828a2.029 2.029 0 0 1 2.029 2.029 2.029 2.029 0 0 1-2.029 2.028 2.029 2.029 0 0 1-2.028-2.028 2.029 2.029 0 0 1 2.028-2.029z" fill="#383838"/><path d="M16 7.885A8.115 8.115 0 0 1 24.115 16 8.115 8.115 0 0 1 16 24.115 8.115 8.115 0 0 1 7.885 16 8.115 8.115 0 0 1 16 7.885z" fill="#9b9b9b"/><path d="M16 10.928A5.072 5.072 0 0 0 10.928 16 5.072 5.072 0 0 0 16 21.072 5.072 5.072 0 0 0 21.072 16 5.072 5.072 0 0 0 16 10.928z" fill="#c4c4c4"/></svg>
